zero-0.svg

<svg height="128pt" viewBox="0 0 128 128" width="128pt" xmlns="http://www.w3.org/2000/svg"><g fill="#b42024"><path d="m70.14 7.96c2.56-1.03 5.94-1.2 8.07.82 1.24 1.25.18 2.91-.02 4.33-2.57 1.3-5.42 1.75-8.13 2.63-3.19 2.25-4.98 5.9-6.97 9.16-5.21 9.73-8.73 20.42-10.14 31.37-.42 3.61-.25 7.69 2.14 10.64 2.12 2.44 5.84 2.2 8.59 1.08 3.73-1.68 5.95-5.33 7.72-8.84 3.48-7.03 6.5-14.39 7.81-22.17.87-6.01.76-12.17 2.4-18.06.71-2.6 1.32-5.45 3.47-7.29 1.91 10.03.79 20.29.54 30.42-1.21 11.26-5.43 22.79-14.07 30.47-4.11 3.82-10.1 5.23-15.56 4.37-5.52-.56-9.45-5.47-11.3-10.34-1.14-5.88.16-11.88 1.24-17.68 1.94-9.52 4.17-19.23 9.31-27.61 3.7-5.59 8.68-10.58 14.9-13.3z"/><path d="m68.27 84.06c8.15-1.62 16.51-.95 24.75-.86 4.47-.03 8.47 2.26 11.48 5.41-9.99 1.45-20.12 1.86-30.11 3.44-10.94 1.5-21.75 3.76-32.52 6.14-2.85.43-5.82 1.38-8.69.68-2.76-2-1.6-7.46 2.01-7.79 10.98-2.54 21.97-5.08 33.08-7.02z"/><path d="m37.9 111.08c20-4.29 40.47-7.59 60.99-6.24 4.61.61 9.54 1.2 13.29 4.23-4.51 2.68-10.05 2.22-15.08 2.94-26.16.36-51.84 6.14-77.18 12.16-2.65.49-5.26 1.81-7.98 1.5-2.38-1.64-2.84-6.32.31-7.36 8.21-3.44 17.01-5.2 25.65-7.23z"/></g></svg>

<?xml version="1.0" encoding="UTF-8" ?>
<!DOCTYPE svg PUBLIC "-//W3C//DTD SVG 1.1//EN" "http://www.w3.org/Graphics/SVG/1.1/DTD/svg11.dtd">
<svg width="128pt" height="128pt" viewBox="0 0 128 128" version="1.1" xmlns="http://www.w3.org/2000/svg">
<g id="#b42024ff">
<path fill="#b42024" opacity="1.00" d=" M 70.14 7.96 C 72.70 6.93 76.08 6.76 78.21 8.78 C 79.45 10.03 78.39 11.69 78.19 13.11 C 75.62 14.41 72.77 14.86 70.06 15.74 C 66.87 17.99 65.08 21.64 63.09 24.90 C 57.88 34.63 54.36 45.32 52.95 56.27 C 52.53 59.88 52.70 63.96 55.09 66.91 C 57.21 69.35 60.93 69.11 63.68 67.99 C 67.41 66.31 69.63 62.66 71.40 59.15 C 74.88 52.12 77.90 44.76 79.21 36.98 C 80.08 30.97 79.97 24.81 81.61 18.92 C 82.32 16.32 82.93 13.47 85.08 11.63 C 86.99 21.66 85.87 31.92 85.62 42.05 C 84.41 53.31 80.19 64.84 71.55 72.52 C 67.44 76.34 61.45 77.75 55.99 76.89 C 50.47 76.33 46.54 71.42 44.69 66.55 C 43.55 60.67 44.85 54.67 45.93 48.87 C 47.87 39.35 50.10 29.64 55.24 21.26 C 58.94 15.67 63.92 10.68 70.14 7.96 Z" />
<path fill="#b42024" opacity="1.00" d=" M 68.27 84.06 C 76.42 82.44 84.78 83.11 93.02 83.20 C 97.49 83.17 101.49 85.46 104.50 88.61 C 94.51 90.06 84.38 90.47 74.39 92.05 C 63.45 93.55 52.64 95.81 41.87 98.19 C 39.02 98.62 36.05 99.57 33.18 98.87 C 30.42 96.87 31.58 91.41 35.19 91.08 C 46.17 88.54 57.16 86.00 68.27 84.06 Z" />
<path fill="#b42024" opacity="1.00" d=" M 37.90 111.08 C 57.90 106.79 78.37 103.49 98.89 104.84 C 103.50 105.45 108.43 106.04 112.18 109.07 C 107.67 111.75 102.13 111.29 97.10 112.01 C 70.94 112.37 45.26 118.15 19.92 124.17 C 17.27 124.66 14.66 125.98 11.94 125.67 C 9.56 124.03 9.10 119.35 12.25 118.31 C 20.46 114.87 29.26 113.11 37.90 111.08 Z" />
</g>
</svg>
